icon/pk/file-ppt.svg

<svg viewBox="0 0 48 48" fill="none" xmlns="http://www.w3.org/2000/svg" height="1em" width="1em">
  <path d="M25 41H38V34" stroke="black" stroke-width="4" stroke-linecap="round" stroke-linejoin="round"/>
  <path d="M25 7H38V14" stroke="black" stroke-width="4" stroke-linecap="round" stroke-linejoin="round"/>
  <path d="M25 34.2432V44L10 38.6187V34" stroke="black" stroke-width="4" stroke-linecap="round" stroke-linejoin="round"/>
  <path d="M25 13.973V4L10 9.38125V13.973" stroke="black" stroke-width="4" stroke-linecap="round" stroke-linejoin="round"/>
  <rect x="4" y="14" width="40" height="20" rx="2" stroke="black" stroke-width="4" stroke-linecap="round" stroke-linejoin="round"/>
  <path d="M10 19V29" stroke="black" stroke-width="4" stroke-linecap="round"/>
  <path d="M21 19V29" stroke="black" stroke-width="4" stroke-linecap="round"/>
  <path d="M35 20V28" stroke="black" stroke-width="4" stroke-linecap="round" stroke-linejoin="round"/>
  <path d="M32 20H35H38" stroke="black" stroke-width="4" stroke-linecap="round" stroke-linejoin="round"/>
  <path d="M10 19H13C14.6569 19 16 20.3431 16 22V22C16 23.6569 14.6569 25 13 25H10" stroke="black" stroke-width="4" stroke-linecap="round" stroke-linejoin="round"/>
  <path d="M21 19H24C25.6569 19 27 20.3431 27 22V22C27 23.6569 25.6569 25 24 25H21" stroke="black" stroke-width="4" stroke-linecap="round" stroke-linejoin="round"/>
</svg>

<svg width="48" height="48" fill="none" xmlns="http://www.w3.org/2000/svg"><path d="M25 41h13v-7M25 7h13v7M25 34.243V44l-15-5.381V34M25 13.973V4L10 9.381v4.592" stroke="#000" stroke-width="4" stroke-linecap="round" stroke-linejoin="round"/><rect x="4" y="14" width="40" height="20" rx="2" stroke="#000" stroke-width="4" stroke-linecap="round" stroke-linejoin="round"/><path d="M10 19v10M21 19v10" stroke="#000" stroke-width="4" stroke-linecap="round"/><path d="M35 20v8M32 20h6M10 19h3a3 3 0 0 1 3 3v0a3 3 0 0 1-3 3h-3M21 19h3a3 3 0 0 1 3 3v0a3 3 0 0 1-3 3h-3" stroke="#000" stroke-width="4" stroke-linecap="round" stroke-linejoin="round"/></svg>
